;FLAVOR:Repetier
;TIME:13674
;MINX:-69.083
;MINY:-71.48
;MINZ:0.18
;MAXX:69.083
;MAXY:71.479
;MAXZ:5.63
;ARCWELDERPROCESSED
; Postprocessed by [ArcWelder](https://github.com/FormerLurker/ArcWelderLib)
; Copyright(C) 2020 - Brad Hochgesang
; resolution=0.05mm
; path_tolerance=1%
; max_radius=1000000.00mm
; firmware_compensation=True
; mm_per_arc_segment=1.00mm
; min_arc_segments=12
; default_xyz_precision=3
; default_e_precision=5

;Generated with Cura_SteamEngine 4.10.0
M82 ;absolute extrusion mode
G21
G90
M82
M107 T0
M190 S105.0
M109 S252 T0
G28
G92 E0
G0 E3 F200
G92 E0

G92 E0
G92 E0
G1 F4200 E-5
;LAYER_COUNT:16
;LAYER:0
M107
G1 F8400 Z2.18
G0 F7500 X-69.083 Y-66.4 Z2.18
;TYPE:SKIRT
G1 F8400 Z0.18
G1 F4200 E0.01663
G3 X-68.723 Y-68.349 I4.813 J-0.119 E0.11879 F1200
G3 X-67.157 Y-70.420 I4.666 J1.901 E0.25315
G3 X-65.329 Y-71.325 I3.077 J3.916 E0.35823
G3 X-64.062 Y-71.479 I1.166 J4.304 E0.42377
G1 X64.017 Y-71.48 E6.98382
G3 X66.467 Y-70.873 I0.062 J4.998 E7.11429
G3 X68.140 Y-69.401 I-2.740 J4.801 E7.22923
G3 X68.971 Y-67.457 I-3.909 J2.820 E7.33836
G3 X69.082 Y-66.422 I-5.207 J1.082 E7.39174
G1 X69.083 Y66.401 E14.19477
G3 X68.719 Y68.358 I-4.799 J0.120 E14.29738
G3 X67.157 Y70.420 I-4.659 J-1.907 E14.43124
G3 X65.329 Y71.325 I-3.077 J-3.916 E14.53632
G3 X64.062 Y71.479 I-1.166 J-4.304 E14.60186
G1 X-64.1 Y71.479 E21.16616
G3 X-66.443 Y70.876 I-0.036 J-4.714 E21.29144
G3 X-68.038 Y69.534 I2.245 J-4.287 E21.39900
G3 X-69.043 Y67.150 I3.969 J-3.077 E21.53289
G1 X-69.081 Y66.501 E21.56619
G1 X-69.083 Y-66.4 E28.37321
G0 F7500 X-68.522 Y-66.4
G3 X-68.190 Y-68.168 I4.219 J-0.123 E28.46598 F1200
G3 X-67.193 Y-69.643 I4.061 J1.670 E28.55765
G3 X-65.180 Y-70.784 I3.287 J3.453 E28.67739
G3 X-64.054 Y-70.918 I1.016 J3.736 E28.73562
G1 X64.017 Y-70.919 E35.29526
G3 X66.207 Y-70.376 I0.064 J4.431 E35.41190
G3 X67.710 Y-69.038 I-2.476 J4.295 E35.51571
G3 X68.418 Y-67.366 I-3.517 J2.475 E35.60939
G3 X68.521 Y-66.422 I-4.645 J0.984 E35.65808
G1 X68.521 Y66.503 E42.46634
G3 X68.187 Y68.175 I-4.137 J0.043 E42.55422
G3 X67.193 Y69.643 I-4.056 J-1.676 E42.64551
G3 X65.180 Y70.784 I-3.287 J-3.453 E42.76524
G3 X64.054 Y70.918 I-1.016 J-3.736 E42.82348
G1 X-64.087 Y70.918 E49.3867
G3 X-65.805 Y70.572 I-0.067 J-4.106 E49.47707
G3 X-67.261 Y69.575 I1.679 J-4.014 E49.56794
G3 X-68.389 Y67.572 I3.463 J-3.269 E49.68687
G3 X-68.520 Y66.488 I3.842 J-1.014 E49.74293
G1 X-68.522 Y-66.4 E56.54929
G0 F7500 X-67.96 Y-66.486
G3 X-67.659 Y-67.983 I3.756 J-0.024 E56.62795 F1200
G3 X-66.418 Y-69.572 I3.609 J1.540 E56.73218
G3 X-65.031 Y-70.244 I2.320 J3.022 E56.81153
G3 X-64.002 Y-70.357 I0.949 J3.897 E56.86463
G1 X64.017 Y-70.358 E63.42161
G3 X65.948 Y-69.878 I-0.099 J4.523 E63.52443
G3 X67.278 Y-68.678 I-2.313 J3.901 E63.61683
G3 X67.916 Y-66.966 I-2.988 J2.089 E63.71126
G1 X67.96 Y-66.422 E63.73921
G1 X67.96 Y66.487 E70.54665
G3 X67.656 Y67.989 I-3.699 J0.033 E70.62560
G3 X66.418 Y69.572 I-3.603 J-1.542 E70.72949
G3 X65.031 Y70.244 I-2.320 J-3.022 E70.80883
G3 X64.002 Y70.357 I-0.949 J-3.897 E70.86194
G1 X-64.074 Y70.357 E77.42183
G1 X-64.783 Y70.301 E77.45826
G1 X-65.615 Y70.043 E77.50288
G3 X-67.186 Y68.800 I1.774 J-3.856 E77.60643
G3 X-67.847 Y67.425 I2.958 J-2.268 E77.68499
G3 X-67.960 Y66.403 I4.064 J-0.967 E77.73773
G1 X-67.96 Y-66.486 E84.54415
G0 F7500 X-67.399 Y-66.47
G3 X-67.027 Y-67.989 I3.049 J-0.058 E84.62502 F1200
G3 X-66.395 Y-68.854 I2.846 J1.416 E84.68006
G3 X-64.883 Y-69.703 I2.487 J2.659 E84.76965
G3 X-64.002 Y-69.796 I0.799 J3.353 E84.81510
G1 X64.017 Y-69.797 E91.37208
G3 X65.688 Y-69.381 I-0.043 J3.735 E91.46107
G3 X66.843 Y-68.320 I-2.035 J3.374 E91.54199
G3 X67.362 Y-66.874 I-2.540 J1.728 E91.62139
G1 X67.399 Y-66.422 E91.64462
G1 X67.399 Y66.471 E98.45123
G3 X67.027 Y67.989 I-3.063 J0.054 E98.53205
G3 X66.395 Y68.854 I-2.846 J-1.416 E98.58709
G3 X64.883 Y69.703 I-2.487 J-2.659 E98.67669
G3 X64.002 Y69.796 I-0.799 J-3.353 E98.72214
G1 X-64.061 Y69.796 E105.28137
G3 X-65.000 Y69.671 I-0.068 J-3.081 E105.33001
G3 X-66.467 Y68.781 I1.090 J-3.451 E105.41865
G3 X-67.306 Y67.278 I2.670 J-2.476 E105.50761
G3 X-67.399 Y66.403 I3.535 J-0.818 E105.55276
G1 X-67.399 Y-66.47 E112.35835
G0 F7500 X-66.838 Y-66.455
G3 X-66.541 Y-67.709 I2.496 J-0.071 E112.42495 F1200
G3 X-65.996 Y-68.459 I2.381 J1.158 E112.47261
G3 X-64.854 Y-69.129 I2.123 J2.311 E112.54087
G3 X-64.002 Y-69.235 I0.768 J2.693 E112.58495
G1 X64.017 Y-69.236 E119.14193
G3 X65.289 Y-68.956 I-0.051 J3.263 E119.20898
G3 X66.158 Y-68.277 I-1.069 J2.264 E119.26581
G3 X66.714 Y-67.289 I-1.899 J1.719 E119.32424
G3 X66.838 Y-66.422 I-4.035 J1.019 E119.36916
G1 X66.838 Y66.456 E126.17501
G3 X66.541 Y67.709 I-2.491 J0.071 E126.24157
G3 X65.996 Y68.459 I-2.381 J-1.158 E126.28922
G3 X64.854 Y69.129 I-2.123 J-2.311 E126.35748
G3 X64.002 Y69.235 I-0.768 J-2.693 E126.40156
G1 X-64.048 Y69.235 E132.96013
G3 X-64.852 Y69.129 I-0.073 J-2.549 E133.00173
G3 X-65.982 Y68.474 I0.958 J-2.955 E133.06907
G3 X-66.733 Y67.249 I2.171 J-2.173 E133.14326
G3 X-66.838 Y66.403 I2.859 J-0.784 E133.18702
G1 X-66.838 Y-66.455 E139.99184
G0 F7500 X-66.277 Y-66.439
G1 F1200 X-66.226 Y-66.972 E140.01927
G3 X-65.688 Y-67.973 I2.355 J0.621 E140.07787 F1200
G3 X-64.705 Y-68.588 I1.785 J1.759 E140.13766
G3 X-64.002 Y-68.674 I0.616 J2.120 E140.17404
G1 X64.017 Y-68.675 E146.73101
G3 X65.170 Y-68.386 I-0.022 J2.533 E146.79233
G3 X65.756 Y-67.885 I-1.275 J2.085 E146.83193
G1 X66.071 Y-67.405 E146.86134
G3 X66.277 Y-66.422 I-2.443 J1.025 E146.91301
G1 X66.277 Y66.44 E153.71804
G3 X66.055 Y67.429 I-1.953 J0.081 E153.77041
G1 X65.688 Y67.973 E153.80402
G3 X64.705 Y68.588 I-1.785 J-1.759 E153.86380
G3 X64.002 Y68.674 I-0.616 J-2.120 E153.90018
G1 X-64.035 Y68.675 E160.45808
G1 X-64.587 Y68.62 E160.48649
G3 X-65.585 Y68.077 I0.644 J-2.372 E160.54507
G3 X-66.191 Y67.102 I1.762 J-1.771 E160.60426
G3 X-66.277 Y66.403 I2.164 J-0.621 E160.64043
G1 X-66.277 Y-66.439 E167.44443
G0 F7500 X-65.717 Y-66.423
G3 X-65.569 Y-67.149 I1.446 J-0.083 E167.48270 F1200
G1 X-65.29 Y-67.578 E167.50891
G3 X-64.556 Y-68.047 I1.353 J1.308 E167.55382
G3 X-64.002 Y-68.113 I0.464 J1.537 E167.58250
G1 X64.017 Y-68.114 E174.13948
G3 X64.910 Y-67.889 I0.001 J1.882 E174.18700
G1 X65.354 Y-67.494 E174.21744
G1 X65.571 Y-67.151 E174.23823
G3 X65.716 Y-66.422 I-2.261 J0.829 E174.27638
G1 X65.717 Y66.424 E181.08059
G3 X65.569 Y67.149 I-1.425 J0.087 E181.11882
G1 X65.29 Y67.578 E181.14503
G3 X64.556 Y68.047 I-1.353 J-1.308 E181.18993
G3 X64.002 Y68.113 I-0.464 J-1.537 E181.21861
G1 X-64.022 Y68.114 E187.77585
G1 X-64.439 Y68.079 E187.79728
G3 X-65.188 Y67.680 I0.464 J-1.774 E187.84103
G3 X-65.650 Y66.955 I1.308 J-1.343 E187.88535
G3 X-65.716 Y66.403 I1.593 J-0.470 E187.91392
G1 X-65.717 Y-66.423 E194.7171
G0 F7500 X-65.156 Y-66.408
G1 F1200 X-65.111 Y-66.801 E194.73736
G1 X-64.891 Y-67.184 E194.75999
G3 X-64.408 Y-67.506 I0.924 J0.863 E194.78990 F1200
G1 X-64.002 Y-67.552 E194.81083
G1 X64.017 Y-67.553 E201.3678
G1 X64.511 Y-67.464 E201.39351
G1 X64.722 Y-67.338 E201.4061
G1 X65.002 Y-67.033 E201.42731
G1 X65.097 Y-66.816 E201.43944
G1 X65.155 Y-66.422 E201.45984
G1 X65.156 Y66.409 E208.26328
G1 X65.111 Y66.801 E208.28349
G1 X64.891 Y67.184 E208.30611
G3 X64.408 Y67.506 I-0.924 J-0.863 E208.33603
G1 X64.002 Y67.552 E208.35695
G1 X-64.009 Y67.553 E214.91352
G1 X-64.408 Y67.506 E214.9341
G1 X-64.792 Y67.284 E214.95682
G3 X-65.108 Y66.809 I0.857 J-0.913 E214.98621
G1 X-65.155 Y66.403 E215.00715
G1 X-65.156 Y-66.408 E221.80956
G1 F4200 E216.80956
G1 F8400 Z2.18
;MESH:rotation_stage_cover.stl
G0 F7500 X8.507 Y-33.239 Z2.18
;TYPE:WALL-OUTER
G1 F8400 Z0.18
G1 F4200 E221.82619
G2 X10.690 Y-31.824 I4.619 J-4.734 E221.96022 F1200
G2 X13.251 Y-31.363 I2.427 J-6.137 E222.09428
G2 X15.791 Y-31.927 I-0.132 J-6.598 E222.22833
G2 X17.899 Y-33.411 I-2.682 J-6.049 E222.36112
G2 X19.286 Y-35.614 I-4.750 J-4.529 E222.49523
G2 X19.713 Y-38.204 I-6.178 J-2.349 E222.63049
G2 X19.106 Y-40.734 I-6.628 J0.252 E222.76452
G2 X17.568 Y-42.832 I-5.910 J2.720 E222.89855
G2 X15.363 Y-44.168 I-4.443 J4.846 E223.03136
G2 X12.331 Y-44.514 I-2.248 J6.238 E223.18898
G2 X9.859 Y-43.700 I0.765 J6.485 E223.32308
G2 X7.909 Y-42.015 I3.231 J5.710 E223.45585
G2 X6.747 Y-39.686 I5.210 J4.054 E223.58994
G2 X6.575 Y-37.091 I6.344 J1.724 E223.72393
G2 X7.419 Y-34.630 I6.567 J-0.877 E223.85796
G2 X8.507 Y-33.239 I5.682 J-3.324 E223.94862
G0 F7500 X8.658 Y-33.109
G0 X8.228 Y-32.609
G0 X8.72 Y-13.136
G0 X9.149 Y-12.636
G2 X7.419 Y-10.692 I3.993 J5.295 E224.08268 F1200
G2 X6.575 Y-8.231 I5.718 J3.336 E224.21671
G2 X6.747 Y-5.636 I6.536 J0.870 E224.35070
G2 X7.909 Y-3.307 I6.345 J-1.712 E224.48480
G2 X9.902 Y-1.598 I5.198 J-4.045 E224.62007
G2 X12.379 Y-0.803 I3.201 J-5.718 E224.75410
G2 X14.971 Y-1.027 I0.739 J-6.557 E224.88813
G2 X17.276 Y-2.236 I-1.863 J-6.353 E225.02222
G2 X19.286 Y-5.014 I-4.190 J-5.148 E225.19976
G2 X19.713 Y-7.604 I-6.178 J-2.349 E225.33501
G2 X19.106 Y-10.134 I-6.628 J0.252 E225.46905
G2 X17.568 Y-12.232 I-5.910 J2.720 E225.60307
G2 X15.363 Y-13.568 I-4.443 J4.846 E225.73588
G2 X12.331 Y-13.914 I-2.248 J6.238 E225.89351
G2 X9.859 Y-13.100 I0.765 J6.485 E226.02760
G1 X9.149 Y-12.636 E226.07104
G0 F7500 X8.998 Y-12.506
G0 X8.569 Y-13.006
G0 X7.435 Y-11.784
G0 X6.476 Y-10.143
G0 X5.98 Y-8.31
G0 X5.973 Y-6.507
G0 X13.759 Y29.492
G0 X13.662 Y30.143
G2 X10.644 Y30.600 I-0.547 J6.581 E226.22870 F1200
G2 X8.489 Y32.014 I2.464 J6.105 E226.36147
G2 X7.030 Y34.170 I4.611 J4.692 E226.49559
G2 X6.517 Y36.720 I6.101 J2.554 E226.62959
G2 X7.030 Y39.270 I6.615 J-0.004 E226.76359
G2 X8.507 Y41.442 I6.061 J-2.534 E226.89894
G2 X10.690 Y42.857 I4.619 J-4.734 E227.03296
G2 X13.251 Y43.318 I2.427 J-6.137 E227.16703
G2 X15.791 Y42.754 I-0.132 J-6.598 E227.30107
G2 X17.899 Y41.270 I-2.682 J-6.049 E227.43387
G2 X19.286 Y39.067 I-4.750 J-4.529 E227.56798
G2 X19.713 Y36.477 I-6.178 J-2.349 E227.70323
G2 X19.106 Y33.947 I-6.628 J0.252 E227.83727
G2 X17.568 Y31.849 I-5.910 J2.720 E227.97129
G2 X15.363 Y30.513 I-4.443 J4.846 E228.10411
G2 X13.662 Y30.143 I-2.229 J6.153 E228.19347
G0 F7500 X13.462 Y30.134
G1 F4200 E223.19347
G0 F7500 X13.494 Y29.474
G0 X63.754 Y-66.152
G0 X63.996 Y-66.782
G1 F4200 E228.2101
G1 F1200 X64.224 Y-66.744 E228.22194
G1 X64.349 Y-66.616 E228.2311
G1 X64.384 Y-66.401 E228.24226
G1 X64.385 Y66.392 E235.04375
G1 X64.381 Y66.54 E235.05133
G1 X64.297 Y66.688 E235.06005
G1 X64.141 Y66.779 E235.0693
G1 X64.001 Y66.781 E235.07647
G1 X-63.996 Y66.782 E241.63232
G1 X-64.143 Y66.779 E241.63985
G1 X-64.292 Y66.693 E241.64866
G1 X-64.381 Y66.541 E241.65769
G1 X-64.384 Y66.401 E241.66486
G1 X-64.385 Y-66.392 E248.46635
G1 X-64.381 Y-66.54 E248.47394
G1 X-64.297 Y-66.688 E248.48265
G1 X-64.141 Y-66.779 E248.4919
G1 X-64.001 Y-66.781 E248.49907
G1 X63.996 Y-66.782 E255.05492
G0 F7500 X64.193 Y-66.75
G1 F4200 E250.05492
G0 F7500 X63.754 Y-66.152
G0 X20.343 Y-37.245
G0 X20.244 Y-37.254
;TYPE:WALL-INNER
G1 F4200 E255.07155
G2 X19.955 Y-40.087 I-7.124 J-0.704 E255.21828 F1200
G2 X18.620 Y-42.545 I-6.950 J2.183 E255.36235
G2 X16.399 Y-44.326 I-5.555 J4.652 E255.50901
G2 X13.200 Y-45.121 I-3.275 J6.343 E255.67927
G2 X10.433 Y-44.601 I-0.092 J7.130 E255.82432
G2 X8.095 Y-43.067 I2.699 J6.662 E255.96836
G2 X6.512 Y-40.728 I5.006 J5.093 E256.11386
G2 X5.956 Y-37.961 I6.637 J2.773 E256.25926
G2 X6.512 Y-35.194 I7.167 J-0.001 E256.40466
G2 X8.114 Y-32.838 I6.617 J-2.777 E256.55146
G2 X10.483 Y-31.302 I5.016 J-5.141 E256.69691
G2 X13.262 Y-30.802 I2.630 J-6.643 E256.84239
G2 X16.018 Y-31.414 I-0.136 J-7.122 E256.98784
G2 X18.307 Y-33.025 I-2.923 J-6.584 E257.13202
G2 X19.811 Y-35.414 I-5.168 J-4.922 E257.27745
G2 X20.244 Y-37.254 I-6.703 J-2.548 E257.37448
G0 F7500 X20.343 Y-37.245
G0 X20.283 Y-6.651
G0 X19.848 Y-4.8
G0 X19.005 Y-3.115
G0 X18.925 Y-3.173
G2 X20.088 Y-5.718 I-5.770 J-4.175 E257.51864 F1200
G2 X20.176 Y-8.567 I-6.953 J-1.641 E257.66551
G2 X18.620 Y-11.945 I-7.082 J1.215 E257.85804
G2 X16.399 Y-13.726 I-5.555 J4.652 E258.00470
G2 X13.200 Y-14.521 I-3.275 J6.343 E258.17496
G2 X10.433 Y-14.001 I-0.092 J7.130 E258.32001
G2 X8.095 Y-12.467 I2.699 J6.662 E258.46404
G2 X6.512 Y-10.128 I5.006 J5.093 E258.60955
G2 X5.956 Y-7.361 I6.637 J2.773 E258.75495
G2 X6.512 Y-4.594 I7.167 J-0.001 E258.90034
G2 X8.114 Y-2.238 I6.617 J-2.777 E259.04714
G2 X10.483 Y-0.702 I5.016 J-5.141 E259.19259
G2 X13.262 Y-0.202 I2.630 J-6.643 E259.33807
G2 X16.018 Y-0.814 I-0.136 J-7.122 E259.48353
G2 X18.307 Y-2.425 I-2.923 J-6.584 E259.62771
G1 X18.925 Y-3.173 E259.67741
G0 F7500 X19.005 Y-3.115
G0 X7.388 Y32.26
G0 X7.466 Y32.321
G2 X6.205 Y34.848 I5.649 J4.397 E259.82291 F1200
G2 X6.019 Y37.664 I6.893 J1.869 E259.96830
G2 X6.934 Y40.334 I7.108 J-0.944 E260.11371
G2 X8.815 Y42.444 I6.188 J-3.623 E260.25933
G2 X11.384 Y43.669 I4.314 J-5.740 E260.40597
G2 X14.205 Y43.798 I1.734 J-7.001 E260.55145
G2 X16.857 Y42.827 I-1.093 J-7.092 E260.69695
G2 X18.925 Y40.908 I-3.677 J-6.036 E260.84230
G2 X20.088 Y38.363 I-5.770 J-4.175 E260.98646
G2 X20.176 Y35.514 I-6.953 J-1.641 E261.13333
G2 X18.620 Y32.136 I-7.082 J1.215 E261.32586
G2 X16.399 Y30.355 I-5.555 J4.652 E261.47252
G2 X13.200 Y29.560 I-3.275 J6.343 E261.64278
G2 X10.433 Y30.080 I-0.092 J7.130 E261.78783
G2 X8.095 Y31.614 I2.699 J6.662 E261.93186
G1 X7.466 Y32.321 E261.98033
G1 F4200 E256.98033
G0 F7500 X7.388 Y32.26
G0 X8.788 Y30.966
G0 X10.418 Y30.043
G0 X12.26 Y29.571
G0 X13.72 Y29.546
G0 X15.567 Y29.948
G0 X17.074 Y30.716
G0 X63.755 Y66.151
G0 X63.825 Y66.221
G1 F4200 E261.99696
G1 F1200 X-63.824 Y66.222 E268.53499
G1 X-63.825 Y-66.221 E275.31856
G1 X63.824 Y-66.222 E281.85658
G1 X63.825 Y66.221 E288.64015
G0 F7500 X63.264 Y65.66
G1 F1200 X-63.263 Y65.661 E295.12071
G1 X-63.264 Y-65.66 E301.84681
G1 X63.263 Y-65.661 E308.32737
G1 X63.264 Y65.66 E315.05347
G1 F4200 E310.05347
G0 F7500 X18.326 Y31.02
G1 F4200 E315.0701
G2 X15.745 Y29.456 I-5.222 J5.706 E315.22556 F1200
G2 X12.197 Y29.052 I-2.632 J7.337 E315.40999
G2 X9.305 Y30.004 I0.896 J7.590 E315.56687
G2 X7.022 Y31.976 I3.781 J6.685 E315.72228
G2 X5.662 Y34.701 I6.089 J4.741 E315.87918
G2 X5.462 Y37.738 I7.443 J2.015 E316.03598
G2 X6.449 Y40.618 I7.635 J-1.007 E316.19283
G2 X8.478 Y42.894 I6.672 J-3.905 E316.34992
G2 X11.248 Y44.215 I4.653 J-6.192 E316.50803
G2 X14.290 Y44.354 I1.870 J-7.572 E316.66490
G2 X17.151 Y43.307 I-1.186 J-7.672 E316.82186
G2 X19.380 Y41.238 I-3.972 J-6.515 E316.97855
G2 X20.635 Y38.492 I-6.188 J-4.488 E317.13411
G2 X20.730 Y35.419 I-7.484 J-1.769 E317.29253
G2 X19.636 Y32.581 I-7.568 J1.287 E317.44923
G2 X18.326 Y31.020 I-6.304 J3.960 E317.55385
G0 F7500 X7.721 Y-1.836
G2 X10.276 Y-0.179 I5.397 J-5.524 E317.71074 F1200
G2 X13.273 Y0.360 I2.834 J-7.155 E317.86763
G2 X16.246 Y-0.300 I-0.141 J-7.662 E318.02454
G2 X18.715 Y-2.038 I-3.148 J-7.095 E318.18007
G2 X20.337 Y-4.614 I-5.562 J-5.301 E318.33689
G2 X20.836 Y-7.644 I-7.207 J-2.743 E318.49511
G2 X20.125 Y-10.607 I-7.736 J0.290 E318.65209
G2 X18.326 Y-13.061 I-6.909 J3.178 E318.80886
G2 X15.745 Y-14.625 I-5.222 J5.706 E318.96432
G2 X12.197 Y-15.029 I-2.632 J7.337 E319.14875
G2 X9.305 Y-14.077 I0.896 J7.590 E319.30563
G2 X7.022 Y-12.105 I3.781 J6.685 E319.46104
G2 X5.662 Y-9.380 I6.089 J4.741 E319.61794
G2 X5.462 Y-6.343 I7.443 J2.015 E319.77474
G2 X6.449 Y-3.463 I7.635 J-1.007 E319.93159
G2 X7.721 Y-1.836 I6.723 J-3.945 E320.03760
G0 F7500 X6.476 Y-4.579
G0 X5.98 Y-6.412
G0 X5.916 Y-37.961
G0 X6.167 Y-39.843
G0 X6.9 Y-41.595
G0 X8.067 Y-43.095
G0 X11.192 Y-45.442
G2 X7.701 Y-43.468 I1.954 J7.529 E320.24522 F1200
G2 X5.993 Y-40.945 I5.418 J5.507 E320.40219
G2 X5.394 Y-37.961 I7.172 J2.992 E320.55898
G2 X5.993 Y-34.977 I7.718 J0.003 E320.71578
G2 X7.721 Y-32.436 I7.144 J-3.001 E320.87410
G2 X10.276 Y-30.779 I5.397 J-5.524 E321.03099
G2 X13.273 Y-30.240 I2.834 J-7.155 E321.18788
G2 X16.246 Y-30.900 I-0.141 J-7.662 E321.34479
G2 X18.715 Y-32.638 I-3.148 J-7.095 E321.50033
G2 X20.337 Y-35.214 I-5.562 J-5.301 E321.65714
G2 X20.836 Y-38.244 I-7.207 J-2.743 E321.81536
G2 X20.125 Y-41.207 I-7.736 J0.290 E321.97234
G2 X18.326 Y-43.661 I-6.909 J3.178 E322.12911
G2 X15.745 Y-45.225 I-5.222 J5.706 E322.28457
