;FLAVOR:Repetier
;TIME:5219
;MINX:-53.684
;MINY:-50.981
;MINZ:0.18
;MAXX:53.684
;MAXY:50.981
;MAXZ:5.63
;ARCWELDERPROCESSED
; Postprocessed by [ArcWelder](https://github.com/FormerLurker/ArcWelderLib)
; Copyright(C) 2020 - Brad Hochgesang
; resolution=0.05mm
; path_tolerance=1%
; max_radius=1000000.00mm
; firmware_compensation=True
; mm_per_arc_segment=1.00mm
; min_arc_segments=12
; default_xyz_precision=3
; default_e_precision=5

;Generated with Cura_SteamEngine 4.10.0
M82 ;absolute extrusion mode
G21
G90
M82
M107 T0
M190 S100.0
M109 S252 T0
G28
G92 E0
G0 E3 F200
G92 E0

G92 E0
G92 E0
G1 F4200 E-5
;LAYER_COUNT:16
;LAYER:0
M107
G1 F8400 Z2.18
G0 F7500 X48.966 Y-50.98 Z2.18
;TYPE:SKIRT
G1 F8400 Z0.18
G1 F4200 E0.01663
G3 X50.658 Y-50.625 I-0.000 J4.210 E0.10574 F1200
G3 X52.569 Y-49.170 I-2.500 J5.266 E0.22962
G3 X53.607 Y-47.065 I-3.599 J3.083 E0.35098
G1 X53.684 Y-46.263 E0.39225
G1 X53.684 Y46.167 E5.1264
G3 X53.071 Y48.421 I-4.702 J-0.068 E5.24720
G3 X51.023 Y50.444 I-4.855 J-2.867 E5.39639
G3 X48.966 Y50.981 I-2.053 J-3.658 E5.50639
G1 X-48.966 Y50.98 E10.52235
G3 X-50.658 Y50.625 I0.000 J-4.210 E10.61146
G3 X-52.576 Y49.163 I2.495 J-5.262 E10.73585
G3 X-53.607 Y47.065 I3.618 J-3.080 E10.85670
G1 X-53.684 Y46.263 E10.89797
G1 X-53.683 Y-46.119 E15.62966
G3 X-53.206 Y-48.159 I5.346 J0.174 E15.73767
G3 X-51.704 Y-49.984 I4.564 J2.226 E15.85982
G3 X-49.945 Y-50.866 I2.843 J3.475 E15.96136
G3 X-48.966 Y-50.981 I0.985 J4.162 E16.01193
G1 X48.966 Y-50.98 E21.02789
G0 F7500 X48.966 Y-50.419
G3 X50.534 Y-50.065 I-0.001 J3.656 E21.11082 F1200
G3 X52.162 Y-48.782 I-2.401 J4.720 E21.21765
G3 X53.021 Y-47.121 I-3.375 J2.798 E21.31413
G3 X53.123 Y-46.263 I-3.627 J0.866 E21.35845
G1 X53.123 Y46.167 E26.0926
G3 X52.563 Y48.180 I-4.190 J-0.081 E26.20069
G3 X50.716 Y49.973 I-4.323 J-2.606 E26.33409
G3 X48.966 Y50.420 I-1.753 J-3.214 E26.42745
G1 X-48.966 Y50.419 E31.4434
G3 X-50.534 Y50.065 I0.001 J-3.656 E31.52634
G3 X-52.307 Y48.562 I2.105 J-4.280 E31.64666
G3 X-53.021 Y47.121 I2.842 J-2.306 E31.72964
G3 X-53.123 Y46.263 I3.627 J-0.866 E31.77397
G1 X-53.122 Y-46.119 E36.50566
G3 X-52.682 Y-47.954 I4.725 J0.163 E36.60297
G3 X-51.378 Y-49.528 I4.057 J2.034 E36.70856
G3 X-49.705 Y-50.344 I2.503 J3.008 E36.80474
G1 X-48.966 Y-50.42 E36.84279
G1 X48.966 Y-50.419 E41.85875
G0 F7500 X48.966 Y-49.858
G3 X50.400 Y-49.505 I-0.004 J3.105 E41.93504 F1200
G3 X51.753 Y-48.396 I-2.314 J4.203 E42.02509
G1 X52.264 Y-47.587 E42.0741
G3 X52.562 Y-46.263 I-2.807 J1.327 E42.14411
G1 X52.562 Y46.167 E46.87826
G3 X52.056 Y47.936 I-3.839 J-0.141 E46.97341
G3 X50.411 Y49.500 I-3.786 J-2.335 E47.09101
G3 X48.966 Y49.859 I-1.444 J-2.726 E47.16795
G1 X-48.966 Y49.858 E52.18391
G3 X-50.400 Y49.505 I0.004 J-3.105 E52.26020
G3 X-51.757 Y48.391 I2.283 J-4.164 E52.35058
G1 X-52.264 Y47.587 E52.39927
G3 X-52.562 Y46.263 I2.807 J-1.327 E52.46928
G1 X-52.561 Y-46.119 E57.20098
G3 X-52.159 Y-47.747 I4.263 J0.189 E57.28745
G3 X-51.053 Y-49.071 I3.227 J1.572 E57.37649
G3 X-49.956 Y-49.696 I2.243 J2.662 E57.44141
G3 X-48.966 Y-49.859 I0.989 J2.920 E57.49297
G1 X48.966 Y-49.858 E62.50893
G0 F7500 X48.966 Y-49.297
G3 X49.846 Y-49.139 I-0.002 J2.542 E62.55490 F1200
G3 X51.340 Y-48.013 I-1.558 J3.621 E62.65158
G3 X51.869 Y-47.068 I-2.554 J2.050 E62.70723
G3 X52.001 Y-46.263 I-2.388 J0.805 E62.74915
G1 X52.001 Y46.167 E67.4833
G3 X51.750 Y47.286 I-2.688 J-0.015 E67.54236
G3 X51.010 Y48.380 I-3.295 J-1.431 E67.61030
G3 X49.694 Y49.191 I-2.869 J-3.182 E67.69001
G3 X48.966 Y49.298 I-0.722 J-2.381 E67.72780
G1 X-48.966 Y49.297 E72.74375
G3 X-49.846 Y49.139 I0.002 J-2.542 E72.78973
G3 X-51.343 Y48.009 I1.554 J-3.615 E72.88666
G3 X-51.869 Y47.068 I2.553 J-2.044 E72.94206
G3 X-52.001 Y46.263 I2.388 J-0.805 E72.98398
G1 X-52 Y-46.119 E77.71567
G3 X-51.637 Y-47.535 I3.669 J0.186 E77.79107
G3 X-51.010 Y-48.380 I3.486 J1.932 E77.84508
G3 X-49.694 Y-49.191 I2.869 J3.182 E77.92479
G3 X-48.966 Y-49.298 I0.722 J2.381 E77.96257
G1 X48.966 Y-49.297 E82.97853
G0 F7500 X48.966 Y-48.736
G3 X49.738 Y-48.578 I-0.001 J1.970 E83.01910 F1200
G3 X50.923 Y-47.634 I-1.474 J3.066 E83.09729
G1 X51.315 Y-46.954 E83.13749
G3 X51.440 Y-46.263 I-1.835 J0.689 E83.17360
G1 X51.44 Y46.167 E87.90775
G3 X51.227 Y47.082 I-2.158 J-0.020 E87.95615
G3 X50.587 Y48.007 I-2.696 J-1.181 E88.01403
G3 X49.442 Y48.678 I-2.195 J-2.434 E88.08255
G1 X48.966 Y48.737 E88.10712
G1 X-48.966 Y48.736 E93.12307
G3 X-49.738 Y48.578 I0.001 J-1.970 E93.16364
G3 X-50.926 Y47.631 I1.462 J-3.053 E93.24204
G1 X-51.315 Y46.954 E93.28204
G3 X-51.440 Y46.263 I1.835 J-0.689 E93.31815
G1 X-51.439 Y-46.119 E98.04984
G3 X-51.118 Y-47.317 I2.939 J0.145 E98.11372
G3 X-50.401 Y-48.158 I2.515 J1.418 E98.17059
G1 X-49.814 Y-48.544 E98.20657
G3 X-48.966 Y-48.737 I0.851 J1.778 E98.25139
G1 X48.966 Y-48.736 E103.26735
G0 F7500 X48.966 Y-48.175
G1 F1200 X49.298 Y-48.135 E103.28447
G1 X49.746 Y-47.938 E103.30954
G3 X50.586 Y-47.113 I-1.193 J2.055 E103.37031 F1200
G1 X50.781 Y-46.778 E103.39016
G1 X50.879 Y-46.263 E103.41701
G1 X50.879 Y46.167 E108.15117
G1 X50.783 Y46.676 E108.1777
G1 X50.533 Y47.193 E108.20711
G3 X49.525 Y48.060 I-2.141 J-1.470 E108.27578
G3 X48.966 Y48.176 I-0.556 J-1.274 E108.30518
G1 X-48.966 Y48.175 E113.32113
G1 X-49.298 Y48.135 E113.33826
G1 X-49.744 Y47.939 E113.36321
G1 X-50.283 Y47.512 E113.39843
G3 X-50.781 Y46.778 I2.799 J-2.435 E113.44394
G1 X-50.879 Y46.263 E113.47079
G1 X-50.878 Y-46.119 E118.20249
G1 X-50.737 Y-46.786 E118.23741
G1 X-50.533 Y-47.193 E118.26072
G3 X-49.525 Y-48.060 I2.141 J1.470 E118.32940
G3 X-48.966 Y-48.176 I0.556 J1.274 E118.35879
G1 X48.966 Y-48.175 E123.37475
G0 F7500 X48.966 Y-47.614
G1 F1200 X49.222 Y-47.574 E123.38802
G3 X49.904 Y-47.099 I-0.835 J1.927 E123.43080 F1200
G1 X50.271 Y-46.541 E123.46501
G1 X50.318 Y-46.263 E123.47945
G1 X50.318 Y46.167 E128.2136
G1 X50.182 Y46.675 E128.24053
G1 X49.942 Y47.053 E128.26347
G3 X49.247 Y47.567 I-1.600 J-1.437 E128.30793
G1 X48.966 Y47.615 E128.32253
G1 X-48.966 Y47.614 E133.33849
G1 X-49.222 Y47.574 E133.35176
G3 X-49.905 Y47.098 I0.819 J-1.903 E133.39462
G1 X-50.271 Y46.541 E133.42876
G1 X-50.318 Y46.263 E133.4432
G1 X-50.317 Y-46.119 E138.17489
G1 X-50.201 Y-46.62 E138.20123
G1 X-49.942 Y-47.053 E138.22707
G3 X-49.247 Y-47.567 I1.600 J1.437 E138.27154
G1 X-48.966 Y-47.615 E138.28614
G1 X48.966 Y-47.614 E143.3021
G0 F7500 X48.966 Y-47.053
G1 F1200 X49.122 Y-47.006 E143.31044
G1 X49.526 Y-46.684 E143.3369
G1 X49.723 Y-46.398 E143.35469
G1 X49.757 Y-46.263 E143.36182
G1 X49.757 Y46.167 E148.09597
G1 X49.625 Y46.535 E148.116
G1 X49.423 Y46.788 E148.13258
G1 X49.136 Y46.997 E148.15076
G1 X48.966 Y47.054 E148.15995
G1 X-48.966 Y47.053 E153.1759
G1 X-49.122 Y47.006 E153.18425
G1 X-49.527 Y46.683 E153.21078
G1 X-49.723 Y46.398 E153.2285
G1 X-49.757 Y46.263 E153.23563
G1 X-49.756 Y-46.119 E157.96732
G1 X-49.625 Y-46.535 E157.98966
G1 X-49.423 Y-46.788 E158.00624
G1 X-49.136 Y-46.997 E158.02443
G1 X-48.966 Y-47.054 E158.03361
G1 X48.966 Y-47.053 E163.04957
G1 F4200 E158.04957
G1 F8400 Z2.18
;MESH:rotation_stage_cover_honeycomb.stl(1)
G0 F7500 X48.986 Y-45.952 Z2.18
;TYPE:WALL-OUTER
G1 F8400 Z0.18
G1 F4200 E163.0662
G1 F1200 X48.986 Y45.961 E167.77387
G1 X48.953 Y46.161 E167.78425
G1 X48.828 Y46.266 E167.79261
G1 X48.557 Y46.283 E167.80652
G1 X-48.683 Y46.282 E172.78703
G1 X-48.895 Y46.23 E172.79821
G1 X-48.978 Y46.088 E172.80664
G1 X-48.986 Y45.952 E172.81362
G1 X-48.985 Y-45.977 E177.52211
G1 X-48.931 Y-46.195 E177.53361
G1 X-48.795 Y-46.274 E177.54167
G1 X-48.557 Y-46.283 E177.55386
G1 X48.683 Y-46.282 E182.53438
G1 X48.895 Y-46.23 E182.54556
G1 X48.978 Y-46.088 E182.55398
G1 X48.986 Y-45.952 E182.56096
G0 F7500 X48.986 Y-45.752
G0 X48.936 Y-46.003
G0 X44.89 Y-42.812
G0 X44.711 Y-42.472
G1 F1200 X41.623 Y-44.085 E182.7394
G1 X41.273 Y-44.085 E182.75733
G1 X38.185 Y-42.472 E182.93577
G1 X38.185 Y-38.983 E183.11447
G1 X41.448 Y-37.279 E183.30302
G1 X44.711 Y-38.983 E183.49156
G1 X44.711 Y-42.472 E183.67026
G0 F7500 X44.534 Y-42.564
G0 X44.713 Y-42.905
G0 X41.703 Y-44.408
G0 X37.866 Y-42.665
G0 X36.977 Y-38.904
G0 X37.083 Y-38.904
G1 F1200 X33.821 Y-37.2 E183.85876
G1 X33.821 Y-33.711 E184.03746
G1 X37.083 Y-32.006 E184.22598
G1 X40.346 Y-33.711 E184.41455
G1 X40.346 Y-37.2 E184.59325
G1 X37.083 Y-38.904 E184.7818
G0 F7500 X36.906 Y-38.812
G0 X36.861 Y-38.9
G0 X33.502 Y-37.072
G0 X33.117 Y-36.416
G1 F1200 X29.854 Y-38.121 E184.97036
G1 X26.592 Y-36.416 E185.15889
G1 X26.592 Y-32.927 E185.33759
G1 X29.854 Y-31.223 E185.52609
G1 X33.117 Y-32.927 E185.71463
G1 X33.117 Y-36.416 E185.89333
G0 F7500 X32.94 Y-36.508
G0 X33.217 Y-36.508
G0 X33.787 Y-33.369
G0 X36.857 Y-30.501
G0 X36.678 Y-30.161
G1 F1200 X33.415 Y-28.456 E186.0819
G1 X33.415 Y-24.967 E186.2606
G1 X36.678 Y-23.263 E186.44914
G1 X39.94 Y-24.967 E186.63764
G1 X39.94 Y-28.456 E186.81634
G1 X36.678 Y-30.161 E187.00487
G0 F7500 X36.501 Y-30.069
G0 X36.324 Y-30.41
G0 X33.381 Y-28.798
G0 X32.811 Y-25.751
G0 X32.711 Y-25.751
G1 F1200 X32.711 Y-29.24 E187.18357
G1 X29.449 Y-30.944 E187.37207
G1 X26.186 Y-29.24 E187.56061
G1 X26.186 Y-25.751 E187.73931
G1 X29.449 Y-24.046 E187.92788
G1 X32.711 Y-25.751 E188.1164
G0 F7500 X32.711 Y-25.951
G0 X32.811 Y-25.951
G0 X36.511 Y-22.454
G0 X36.511 Y-19.221
G0 X36.192 Y-19.093
G1 F1200 X36.192 Y-22.582 E188.2951
G1 X32.929 Y-24.287 E188.48367
G1 X29.667 Y-22.582 E188.67219
G1 X29.667 Y-19.093 E188.85089
G1 X32.929 Y-17.389 E189.03939
G1 X36.192 Y-19.093 E189.22794
G0 F7500 X36.192 Y-19.293
G0 X36.41 Y-18.832
G1 F1200 X33.148 Y-17.127 E189.41646
G1 X33.148 Y-13.638 E189.59516
G1 X36.41 Y-11.934 E189.78366
G1 X39.673 Y-13.638 E189.9722
G1 X39.673 Y-17.127 E190.1509
G1 X36.41 Y-18.832 E190.33947
G0 F7500 X36.233 Y-18.74
G0 X36.188 Y-18.828
G0 X33.114 Y-17.147
G0 X32.929 Y-13.477
G0 X32.929 Y-13.377
G1 F1200 X29.667 Y-11.673 E190.52797
G1 X29.667 Y-8.184 E190.70667
G1 X32.929 Y-6.479 E190.89519
G1 X36.192 Y-8.184 E191.08376
G1 X36.192 Y-11.673 E191.26246
G1 X32.929 Y-13.377 E191.45101
G0 F7500 X32.752 Y-13.285
G0 X32.707 Y-13.373
G0 X29.449 Y-11.834
G0 X29.449 Y-11.934
G1 F1200 X32.711 Y-13.638 E191.6395
G1 X32.711 Y-17.127 E191.81821
G1 X29.449 Y-18.832 E192.00673
G1 X26.186 Y-17.127 E192.1953
G1 X26.186 Y-13.638 E192.374
G1 X29.449 Y-11.934 E192.56254
G0 F7500 X29.626 Y-12.026
G0 X29.671 Y-11.938
G0 X29.633 Y-7.842
G0 X32.745 Y-5.357
G0 X32.711 Y-5.015
G1 F1200 X29.449 Y-6.719 E192.75104
G1 X26.186 Y-5.015 E192.93958
G1 X26.186 Y-1.526 E193.11829
G1 X29.106 Y0.00 E193.28704
G1 X26.186 Y1.526 E193.45579
G1 X26.186 Y5.015 E193.63449
G1 X29.449 Y6.719 E193.82303
G1 X32.711 Y5.015 E194.01153
G1 X32.711 Y1.526 E194.19023
G1 X29.791 Y0.00 E194.35898
G1 X32.711 Y-1.526 E194.52773
G1 X32.711 Y-5.015 E194.70644
G0 F7500 X32.534 Y-5.107
G0 X32.811 Y-5.107
G0 X36.652 Y-7.862
G0 X37.597 Y-7.381
G0 X39.987 Y-5.886
G0 X39.94 Y-5.798
G1 F1200 X36.678 Y-7.503 E194.89496
G1 X33.415 Y-5.798 E195.08353
G1 X33.415 Y-2.309 E195.26223
G1 X36.678 Y-.605 E195.45077
G1 X39.94 Y-2.309 E195.63927
G1 X39.94 Y-5.798 E195.81797
G0 F7500 X39.763 Y-5.89
G0 X39.81 Y-5.978
G0 X41.043 Y-5.517
G0 X44.482 Y-7.241
G0 X44.305 Y-7.582
G1 F1200 X44.305 Y-11.071 E195.99667
G1 X41.042 Y-12.776 E196.18524
G1 X37.78 Y-11.071 E196.37376
G1 X37.78 Y-7.582 E196.55247
G1 X41.042 Y-5.878 E196.74096
G1 X44.305 Y-7.582 E196.92951
G0 F7500 X44.305 Y-7.782
G0 X44.641 Y-8.07
G0 X46.356 Y-9.019
G0 X46.533 Y-8.678
G1 F1200 X44.852 Y-7.801 E197.02662
G1 X44.852 Y-4.312 E197.20532
G1 X46.533 Y-3.434 E197.30246
G1 X46.533 Y-8.678 E197.57105
G0 F7500 X46.356 Y-8.586
G0 X46.179 Y-8.927
G0 X44.624 Y-11.262
G0 X40.56 Y-13.587
G0 X40.645 Y-13.638
G1 F1200 X43.907 Y-11.934 E197.75955
G1 X46.533 Y-13.306 E197.9113
G1 X46.533 Y-17.46 E198.12406
G1 X43.907 Y-18.832 E198.27581
G1 X40.645 Y-17.127 E198.46433
G1 X40.645 Y-13.638 E198.64304
G0 F7500 X40.822 Y-13.546
G0 X40.775 Y-13.458
G0 X40.611 Y-17.148
G0 X43.898 Y-19.182
G0 X44.305 Y-19.695
G1 F1200 X44.305 Y-23.184 E198.82174
G1 X41.042 Y-24.888 E199.01028
G1 X37.78 Y-23.184 E199.19878
G1 X37.78 Y-19.695 E199.37748
G1 X41.042 Y-17.99 E199.566
G1 X44.305 Y-19.695 E199.75457
G0 F7500 X44.305 Y-19.895
G0 X44.69 Y-19.895
G0 X43.898 Y-19.137
G0 X41.051 Y-17.64
G0 X37.461 Y-19.502
G0 X36.511 Y-22.454
G0 X32.954 Y-24.645
G0 X29.264 Y-22.924
G0 X25.943 Y-24.645
G0 X22.659 Y-22.671
G0 X22.705 Y-22.582
G1 F1200 X22.705 Y-19.093 E199.93327
G1 X25.968 Y-17.389 E200.12182
G1 X29.23 Y-19.093 E200.31031
G1 X29.23 Y-22.582 E200.48902
G1 X25.968 Y-24.287 E200.67754
G1 X22.705 Y-22.582 E200.86611
G0 F7500 X22.705 Y-22.382
G0 X22.577 Y-22.628
G0 X21.436 Y-19.502
G0 X19.191 Y-17.469
G0 X19.225 Y-17.127
G1 F1200 X19.225 Y-13.638 E201.04481
G1 X22.487 Y-11.934 E201.23331
G1 X25.75 Y-13.638 E201.42185
G1 X25.75 Y-17.127 E201.60055
G1 X22.487 Y-18.832 E201.78912
G1 X19.225 Y-17.127 E201.97764
G0 F7500 X19.225 Y-16.927
G0 X19.125 Y-16.927
G0 X15.013 Y-18.929
G0 X14.99 Y-18.832
G1 F1200 X11.728 Y-17.127 E202.16616
G1 X11.728 Y-13.638 E202.34487
G1 X14.99 Y-11.934 E202.53336
G1 X18.253 Y-13.638 E202.72191
G1 X18.253 Y-17.127 E202.90061
G1 X14.99 Y-18.832 E203.08918
G0 F7500 X14.813 Y-18.74
G0 X15.03 Y-18.912
G0 X17.846 Y-17.64
G0 X21.436 Y-19.502
G0 X21.436 Y-23.056
G0 X18.996 Y-24.652
G0 X15.175 Y-26.645
G0 X14.458 Y-27.317
G1 F1200 X17.721 Y-29.021 E203.27772
G1 X17.721 Y-32.51 E203.45642
G1 X14.458 Y-34.215 E203.64499
G1 X11.196 Y-32.51 E203.83351
G1 X11.196 Y-29.021 E204.01221
G1 X14.458 Y-27.317 E204.20071
G0 F7500 X14.635 Y-27.409
G0 X14.418 Y-27.237
G0 X11.603 Y-28.508
G0 X8.012 Y-26.647
G0 X8.331 Y-26.454
G1 F1200 X8.331 Y-22.965 E204.37941
G1 X11.594 Y-21.26 E204.56798
G1 X14.592 Y-22.827 E204.74124
G1 X14.592 Y-19.695 E204.90166
G1 X17.855 Y-17.99 E205.09023
G1 X21.117 Y-19.695 E205.27875
G1 X21.117 Y-23.184 E205.45745
G1 X17.855 Y-24.888 E205.64595
G1 X14.856 Y-23.322 E205.81924
G1 X14.856 Y-26.454 E205.97965
G1 X11.594 Y-28.158 E206.16815
G1 X8.331 Y-26.454 E206.3567
G0 F7500 X8.331 Y-26.254
G0 X7.946 Y-26.254
G0 X7.123 Y-22.886
G0 X7.229 Y-22.886
G1 F1200 X3.967 Y-21.181 E206.54522
G1 X3.967 Y-17.692 E206.72392
G1 X7.229 Y-15.988 E206.91242
G1 X10.492 Y-17.692 E207.10096
G1 X10.492 Y-21.181 E207.27966
G1 X7.229 Y-22.886 E207.46823
G0 F7500 X7.052 Y-22.794
G0 X7.007 Y-22.882
G0 X3.506 Y-21.504
G0 X0.184 Y-23.225
G0 X0.133 Y-27.107
G0 X0.218 Y-27.056
G1 F1200 X0.218 Y-23.567 E207.64693
G1 X3.481 Y-21.862 E207.8355
G1 X6.743 Y-23.567 E208.02402
G1 X6.743 Y-27.056 E208.20272
G1 X3.481 Y-28.76 E208.39122
G1 X0.218 Y-27.056 E208.57977
G0 F7500 X0.218 Y-26.856
G0 X0.118 Y-26.856
G0 X-3.2 Y-28.648
G0 X-4.878 Y-27.129
G0 X-4.647 Y-26.821
G1 F1200 X-5.873 Y-26.069 E208.65343
G1 X-6.743 Y-25.708 E208.70168
G1 X-6.743 Y-23.567 E208.81134
G1 X-3.481 Y-21.862 E208.99986
G1 X-.218 Y-23.567 E209.18842
G1 X-.218 Y-27.056 E209.36713
G1 X-2.936 Y-28.474 E209.52415
G1 X-3.546 Y-27.761 E209.57221
G1 X-4.647 Y-26.821 E209.64635
G0 F7500 X-4.817 Y-26.717
G0 X-5.017 Y-27.045
G0 X-7.061 Y-25.921
G0 X-7.123 Y-22.886
G0 X-7.229 Y-22.886
G1 F1200 X-10.492 Y-21.181 E209.83492
G1 X-10.492 Y-17.692 E210.01362
G1 X-7.229 Y-15.988 E210.20217
G1 X-3.967 Y-17.692 E210.39067
G1 X-3.967 Y-21.181 E210.56937
G1 X-7.229 Y-22.886 E210.75789
G0 F7500 X-7.406 Y-22.794
G0 X-7.138 Y-22.934
G0 X-14.414 Y-19.355
G0 X-14.592 Y-19.695
G1 F1200 X-14.592 Y-22.827 E210.91831
G1 X-11.594 Y-21.26 E211.09157
G1 X-8.331 Y-22.965 E211.28014
G1 X-8.331 Y-25.199 E211.39456
G1 X-10.057 Y-25.063 E211.48324
G1 X-11.499 Y-25.176 E211.55732
G1 X-12.895 Y-25.511 E211.63085
G1 X-14.856 Y-26.323 E211.73956
G1 X-14.856 Y-23.322 E211.89327
G1 X-17.855 Y-24.888 E212.06656
G1 X-21.117 Y-23.184 E212.25506
G1 X-21.117 Y-19.695 E212.43376
G1 X-17.855 Y-17.99 E212.62228
G1 X-14.592 Y-19.695 E212.81085
G0 F7500 X-14.592 Y-19.895
G0 X-14.207 Y-19.895
G0 X-14.999 Y-19.137
G0 X-18.338 Y-17.178
G0 X-18.253 Y-17.127
G1 F1200 X-18.253 Y-13.638 E212.98955
G1 X-14.99 Y-11.934 E213.17809
G1 X-11.728 Y-13.638 E213.36659
G1 X-11.728 Y-17.127 E213.54529
G1 X-14.99 Y-18.832 E213.73381
G1 X-18.253 Y-17.127 E213.92238
G0 F7500 X-18.253 Y-16.927
G0 X-18.353 Y-16.927
